X:1
T:James Gibb editions
T:Laboravi in gemitu meo - Caldara
T:#
%%score [ 1 2 3 ] { ( 4 5 7 ) | 6 }
L:1/8
Q:1/4=90
M:4/4
K:Eb
V:1 treble nm="Alto" snm="A"
V:2 treble-8 nm="Tenor" snm="T"
V:3 bass nm="Bass" snm="B"
V:4 treble nm="Organ"
V:5 treble 
V:7 treble 
V:6 bass 
V:1
"^adagio""^Laboravi in gemitu meo""^Antonio Caldara\n(1670 -1736)""^Psalm 6:7" z2 A4 A2 | %1
w: La- bo-|
 A4 A2 A2 | (_G6 F2 | =E8 | F6) FF | =E4 E4 | z4 z2 BA | (GF)EE (A4 | G6 FE | F6 E_D | E6 FE | %11
w: ra- vi in|ge\- *||* mi- tu|me- o|la- bo-|ra\- * vi in ge\-||||
 D4 EF G2- | G2 F=E F4 | _E6 EE | E4 D4 | z2 G2 A2 =EE | F2 GG (C2 B,2- | B,2) A,2 z2 F2 | %18
w: ||* mi- tu|me- o;|la- va- bo per|sin- gu- las no\- *|* ctes, la-|
 _G2 =EE F2 CC | _DD C3 C B,2 | C4 z2 C2 | _D2 =D2 E2 =E2 | F4 E2 _D2) | C4 z4 | z4 z2 F2 | %25
w: va- bo per sin- gu- las|no- ctes le- ctum me-|um: la-|cry- mis me\- *||is,|la-|
 _G2 =G2 (A2 =A2 | B4 _A2 _G2 | F6 =E2) | F2 F=E _D2 =A,A, | (B,8- | B,2 =A,G, A,4) | B,4 z2 F2 | %32
w: cry- mis me\- *|||is. stra- tum me- um ri-|ga\-||bo; la-|
 _G2 =EE F2 =GG | CCGG F4 | =E4- z4 | z4 z2 C2 | _D2 =D2 (E2 E2 | F4) G4 | z2 F2 =E2 _E2 | %39
w: va- bo per sin- gu- las|no- ctes le- ctum me-|um:|la-|cry- mis me\- *|* is,|la- cry- mis|
 (D2 _D2 C2 F2- | F2 =E2 F4- | F2 E4 _D2) | C2 C2 _D2 =D2 | (E2 =E2 F2 _E2 | _DE F3 E G2 | %45
w: me\- * * *|||is, la- cry- mis|me\- * * *||
 AG F4) =E2 | z8 | z2 FE _D2 =A,A, | (B,2 C2 _D2 =D2 |[Q:1/4=89] E2[Q:1/4=87] =E2[Q:1/4=84] F4 | %50
w: * * * is||stra- tum me- um ri-|ga\- * * *||
[Q:1/4=81] =E2[Q:1/4=79] F4[Q:1/4=76] E2) |[Q:1/4=76] !fermata!F8 |] %52
w: |bo.|
V:2
 z2 c4 c2 | c4 c2 c2 | (_d8- | d2 cB c4 | =B6) BB | c4 c2 cB | (AG)FF (B4- | BA G2 F2 f2- | %8
w: La- bo-|ra- vi in|ge\-||* mi- tu|me- o, la- bo-|ra\- * vi in ge\-||
 f2 ed e4- | e2 _dc d4 | c6 _dc | =B4 c3 _B | A6- B2 | c6 cc | c4 =B4 | z8 | z8 | z2 c2 _d2 =AA | %18
w: |||||* mi- tu|me- o;|||la- va- bo per|
 B2 cc FF F2- | F2 =E2 F4 | =E2 G2 A2 =A2 | B2 =B2 c2 _B2 | A4 GA B2- | B2 =A2 z4 | z2 c2 _d2 =d2 | %25
w: sin- gu- las no- ctes le\-|* ctum me-|um: la- cry- mis|me\- * * *||* is,|la- cry- mis|
 (e2 =e2 f3 _e | _d4 cd e2- | e2 _dc B4) | =A2 AA B2 cc | _d4 e2 d2 | c8) | B4 z4 | z2 c2 _d2 =BB | %33
w: me\- * * *|||is stra- tum me- um ri-|ga\- * *||bo;|la- va- bo per|
 c4 cc _B2 | c4 z4 | z2 G2 !courtesy!_A2 =A2 | (B2 =B2 c4- | c4) c4 | z8 | z4 z2 c2 | %40
w: sin- gu- las no-|ctes|la- cry- mis|me\- * *|* is,||la-|
 =B2 _B2 ((=A2 _A2) | G4 F2 G2 | AB c4) B2 | z2 G2 !courtesy!_A2 =A2 | (B2 =B2 c4- | %45
w: cry- mis me\- *||* * * is,|la- cry- mis|me\- * *|
 c_B _A2) G2 cB | A2 =EE (F2 G2 | A2 =A2 B2 c2 | F8 | B2 G2 cB A2 | G2 A2 G4) | !fermata!F8 |] %52
w: * * * is stra- tum|me- um ri- ga\- *|||||bo.|
V:3
 z2 F,4 F,2 | F,4 F,2 F,2 | (B,,8 | C,8 | _D,6) D,D, | C,4 C,4 | z2 F,E, (_D,C,)B,,B,, | (E,6 D,2 | %8
w: La- bo-|ra- vi in|ge\-||* mi- tu|me- o,|la- bo- ra\- * vi in|ge\- *|
 E,8 | B,,6 B,2- | B,2 A,G, A,4- | A,2 G,F, E,2 =E,2 | F,8 | ^F,6 F,F, | G,4 G,4 | z4 z2 G,2 | %16
w: |||||* mi- tu|me- o;|la-|
 A,2 =E,E, F,2 G,G, | C,2 F,2 z4 | z2 C,2 _D,2 =A,,A,, | B,,2 C,C, _D,D,D,D, | C,2 C,2 z4 | %21
w: va- bo per sin- gu- las|no- ctes,|la- va- bo per|sin- gu- las no- ctes le- ctum|me- um:|
 z4 z2 C,2 | _D,2 =D,2 E,2 =E,2) | F,2 F,2 _G,2 =G,2 | (A,2 =A,2) B,4 | z4 z2 F,2 | %26
w: la-|cry- mis me\- *|is, la- cry- mis|me\- * is,|la-|
 _G,2 =G,2 (A,2 =A,2 | B,3 _A, _G,4) | F,4 z4 | z2 B,A, _G,2 =E,E, | F,8 | B,,2 B,2 _D2 =A,A, | %32
w: cry- mis me\- *||is,|stra- tum me- um ri-|ga-|bo; la- va- bo per|
 B,2 CC F,4 | =E,2 _E,E, _D,4 | C,2 C,2 _D,2 =D,2 | (E,2 =E,2 F,4 | B,A,G,F, _E,_D,C,B,,) | %37
w: sin- gu- las no-|ctes le- ctum me-|um: la- cry- mis|me\- * *||
 A,,2 F,2 =E,2 _E,2 | (D,2 _D,2 C,2 =A,2 | B,2 G,2 _A,4 | G,2 C,2 F,2 D,2 | E,4 B,,4 | %42
w: is, la- cry- mis|me\- * * *||||
 A,,2 =A,,2) B,,4 | z4 z2 C,2 | _D,2 =D,2 (E,2 =E,2 | F,4) C,4 | z2 CB, A,2 =E,E, | %47
w: * * is,|la-|cry- mis me\- *|* is|stra- tum me- um ri-|
 F,2 F,2 z2 F,E, | _D,2 =A,,A,, (B,,2 _A,,2 | G,,2 C,B,, A,,3 B,, | C,2 =B,,2 C,4) | %51
w: ga- bo, stra- tum|me- um ri- ga\- *|||
 !fermata!F,,8 |] %52
w: bo.|
V:4
"^adagio" [CFA]8 | [A,CF]8 | [B,_G]6 [A,F]2 | [G,=E]8 | [F,=B,F]8 | [G,C=E]8 | C4 _D3 =D | %7
 [EG]4 A4 | G6 AG | F6 GF | [CE]6 [_DF][CE] | [=B,=D]4 G4- | G2 F=E F4 | [C_E]8- | [CE]4 [=B,D]4 | %15
 [G,CG]4 [A,C]2 [B,=E]2 | F2 G2 A2 GF | =E2 F4 F2 | [_D_G]2 =E2 F4- | F2 =E2 F4 | [G,=E]4 F4- | %21
 F2 GA G4 | F4 G3 _D | C3 F- FE B2- | BA_GF F2- [FB]2 | BBc_d- dc f2- | f2 e3 _d c2- | %27
 c_d B4 [=EB]2 | [F=A]4 [_DB]2 [Cc]2 | [_DF]4 [EB]2 D2 | C6 FE | [B,_D]2 [DFB]4 [CFc]2 | %32
 [_DGB]2 [C=E=G]2 [DA_d]2 [=DG=B]2 | [Gc]2 G2 [FA]2- [FB]2 | G2 [G=e]2 [Ff]2 [_A_c]2 | e_dcB AGFE | %36
 _DF G4 c2- | cBAB c4- | c f2 =B c4 | [DF]2 [_D_FB]2 E2 [=Fc]2- | [DF=B]2 [=EG_B]2 [C=A]2 _A2 | %41
 G4 F2 G2 | A2 _G2 F4 | [EG]2 [B,=E]2 [CF]2 [_E_G]2 | [B,_DF]2 [=B,A]2 [CG]2 [GB]2 | %45
 [FA]4- [FG]2 [B,=E]2 | F2 G2 A2 cB | A2 [C=A]2 [_DB]2 [FAc]2 | [Bf]2 [ce]2 [B_d]2 _c2 | %49
 [GB]2 G2 [Cc]3 [_DB] | [=EB]2 [F-A]2 [FG]2 [EG]2 | !fermata![A,CF]8 |] %52
V:5
 x8 | x8 | _D8- | D2 CB, C4 | x8 | x8 | F8 | x4 F4- | F2 ED E4- | E2 _DC D4 | x8 | x8 | x8 | =A,8 | %14
 G,8 | x8 | C6 B,2- | B,2 A,2 _D2 C2 | x2 CB, A,B, C2 | _D2 C3 A,B,F, | x4 _A,2 =A,C | %21
 _D2 =D2 E2 [B,=E]2 | A,2 B,C B,4- | B,2 =A,2 B,2 [_DE]2- | [CE]4 D2 =D2 | _G2 =G2 A2 [=Ac]2 | %26
 B4 [Ac]2 [E_G]2- | E2 _D4 CB, | C4 F4 | x4 B,4- | B,2 =A,G, A,4 | x8 | x8 | C6 B,2 | %34
 [C=E]2 c4 x2 | [GB]2 [CG]2 F2 [=A,C]2 | B,2 [=B,=D]2 [CE]2- [C=E]2 | [CF]4 [CG]4 | F4 =E2 [E_G]2 | %39
 x8 | x4 x2 B,2- | B,8 | x6 x2 | x6 x2 | x8 | x8 | A,2 C2 x2 [CG]2- | [CF]2 F4 x2 | F6 [=DF]2 | %49
 E2 =E2 F4 | C2 =D2 G,2 CB, | x8 |] %52
V:6
 F,8 | F,8 | B,,8 | C,8 | _D,8 | C,8 | F,3 E, _D,C, B,,2 | E,6 D,2 | E,8 | B,,6 B,2- | %10
w: ||3|9~~~~8|6|||~~~~~~~~~~~~~~~~~~~~~4 *|9~~~8|4~~~3 *|
w: ||6~~~~~~5|3||||~~~~~~~~~~~~~~~~~~~~~2 *|||
 B,2 A,G, A,4- | A,2 G,F, E,2 =E,2 | F,8 | ^F,8 | G,4 G,,4 | =E,4 F,2 G,2 | A,2 =E,2 F,2 G,2 | %17
w: 4 * * *|4 * * 6 *|9~~~8|7|6 5|* * 6|6 * * *|
w: 2 * * *|2 * * * *||5|4 3|||
 C,2 F,2 B,2 =A,2 | B,2 C,2 _D,2 =A,,2 | B,,2 C,2 _D,4 | C,4 F,2 F,2 | B,2 =B,2 C2 C,2 | %22
w: 3 * 3 6|6 3 5 6|* 3 7~~~~~~~~~~~~~6||* 6 * *|
w: 7 * * *||||* * * 7|
 _D,2 =D,2 E,2 =E,2 | F,2 F,2 _G,2 =G,2 | A,2 =A,2 B,4 | E2 =E2 F2 F,2 | _G,2 =G,2 A,2 =A,2 | %27
w: 5 * * 7|4 3 6 6|||5 * * 7|
w: |* * * 5||||
 B,3 =A, _G,4 | F,4 B,2 =A,2 | B,2 B,_A, _G,2 =E,2 | F,8 | B,,4 B,2 =A,2 | B,2 C2 F,4 | %33
w: 4~~~~3 * 7~~~6||* * * * 7|4|* * 6|6 * 6~~~~~4|
w: |||||* * ~~~~~~~2|
 =E,2 _E,2 _D,4 | C,4 _D,2 =D,2 | E,2 =E,2 F,4 | B,!courtesy!_A,G,F, _E,_D,C,B,, | %37
w: * * 7~~~~~~~~~6|||* * * * 6 * * *|
w: ||||
 A,,2 F,2 =E,2 _E,2 | D,2 _D,2 C,2 =A,2 | B,2 G,2 _A,4 | G,2 C,2 F,2 D,2 | E,4 B,,4 | %42
w: 6 * * *|* * * 5|* 5 5~~~6|* * * 5|9~~~~8 4~~~~~3|
w: |||7 7 * *|* ~~~~~~~6|
 A,,2 =A,,2 B,,4 | E,2 G,2 A,2 C,2 | _D,2 =D,2 E,2 =E,2 | F,4 C,4 | F,2 =E,2 F,2 E,2 | %47
w: * * 9~~~~~~~8|* 6 6 6|6 6 9~~8 *|* 4||
w: |* * * 3|* * 6 *|||
 F,2 F,2 B,2 F,_E, | _D,2 =A,,2 B,,2 _A,,2 | G,,2 C,B,, A,,3 B,, | C,2 =B,,2 C,4 | !fermata!F,,8 |] %52
w: |6 * * 4|6 * * 6 *|* 7 4||
w: |||* 5 *||
V:7
 x8 | x8 | x8 | x8 | x8 | x8 | A,3 =A, B,4- | B,4 C2 B,2- | B,8 | B,8 | x8 | x4 [G,C]4- | [A,C]8 | %13
 x8 | x8 | x8 | x8 | x8 | x8 | x8 | x8 | x8 | x8 | x8 | x8 | x8 | x8 | x8 | x8 | x8 | x8 | x8 | %32
 x8 | x8 | x8 | x8 | x8 | x8 | x8 | x8 | x4 F4- | F2 E4 _D2 | [CE]4- [C_D]2 [B,=D]2- | %43
 B,2 x2 x2 =A,2 | x2 F3 E C2- | C6 x2 | x8 | x8 | x8 | x8 | x8 | x8 |] %52

